!!!OTL: VON LIEB ENTBRANNT UND FERTIG ZU DER REISE
!!!ARE: Europa, Mitteleuropa, Deutschland; France
!!!SCT: B0733
!!!YEM: Copyright 1995, estate of Helmut Schaffrath.
**kern
*ICvox
*Ivox
*M4/4
*k[]
*C:
{8G
8e
8c
=1
4.G
8G
8G
8G
8A
8G
=2
8.G
16F
4F
8r}
{8F
8G
8F
=3
4.E
8E
8F
8F
8.d
16c
=4
[2c
8c]}
{8G
8e
8c
=5
4.G
8G
8G
8G
8A
8G
=6
8.F#
16c
4c
8r}
{8A
8B
8c
=7
4B
4A
8G
8G
8F#
8F#
=8
2G
4r}
{4G
=9
4.e-
8c
4c
4c
=10
4B
4G
4r}
{4G
=11
4.e-
8c
4.c
8d
=12
4B
4G
8r}
{8G
8A
8B
=13
4.c
8d
8e
8d
8c
8B
=14
4A
4.f}
{8f
8e
8d
=15
4.c
8G
8G
8G
8A
8B
=16
2c
4r}
{4G
=17
4.e-
8c
4c
4c
=18
4B
4G
4r}
{4G
=19
4.e-
8c
4.c
8d
=20
4B
4G
8r}
{8G
8A
8B
=21
4.c
8d
8e
8d
8c
8B
=22
4A
4.f}
{8f
8e
8d
=23
4.c
8G
8G
8G
8A
8B
=24
4c
4.r}
==
!!!AGN: Liebes -, Troubadour -, Kriegs - Lied
!!!ONB: ESAC (Essen Associative Code) Database: BOEHME
!!!AMT: simple quadruple
!!!AIN: vox
!!!EED: Helmut Schaffrath
!!!EEV: 1.0
*-
